X:1
T:IV. Passpied
T:Claude-Achille Debussy
C:Claude-Achille Debussy
%%score { ( 1 3 ) | ( 2 4 ) }
L:1/8
Q:1/4=184
M:4/4
K:A
V:1 treble nm="Piano" snm="Pno."
V:3 treble 
V:2 bass 
V:4 bass 
V:1
!p!"^Allegro ma non troppo" z8 | z8 |!p! .F2 .c2 !tenuto!B4- | B2 .A.G .F2 .E.D | (C2 DE F2 A2) | %5
 G8- | G.F.GA !tenuto!B4- |"_cresc." BABc d4- | dcde (f4- | f4!>(! F4-)!>)! | %10
!p! F2 .c2 !tenuto!B4- | B2 .A.G .F2 .E.D |!<(! z CDE F2 A2!<)! |!>(! [FG]8-!>)! | %14
 [FG]4!<(! ([FA]2 !wedge![eg]2)!<)! | !tenuto![FG]4!<(! ([DF]2 !wedge![ce]2)!<)! | %16
 [CE]2 z2!f! ([B,^D]2 !wedge![Ac]2) |!f! !>![G,C]8- | [G,C]4!p! ([B,D]2 !wedge![FA]2) | %19
!<(! [EG]4- ([EG][FA] [GB]2-)!<)! | ([GB]2 [Ac]2) ([B,D]2 !wedge![FA]2) | %21
 ([EG]4-!<(! [EG][FA] [GB]2- | [GB]2 [EG]2 [FA]2 [GB]2)!<)! | %23
!mf! (3(!tenuto!c2 !tenuto!c2 !tenuto!e2) (3(!tenuto!c2 !tenuto!B2 !tenuto!c2) | (A2 c2 [D-AB-]4) | %25
 (B2 c2 A4) |"^dim." [FA-]8 | A2 x2 x4 | (3(B2 c2 A2 (3B2 c2 d2) | %29
!p! .[Ff]2 .[cc']2 (!tenuto![^eb]4 | f2) .A.G .F2 .E.D | C2 DE .F2 .A2 | !>![FG]8- | %33
!<(! (GFGA!<)!!mf! =B4-) | (BA=BA G4-) | (GFED) C4- | C8 | x8 |!p! (!tenuto!f2 !tenuto!c'2 ^b4) | %39
 (c'2 e'2 (3^d'2 =b2 a2) | (f2 c'2 !tenuto!^b4) | (c'2 e'2) (3(^d'2 =b2 d'2) | %42
!mf!"^cédez un peu" (c2 e2 (3(^d2 B2 d2) |[Q:1/4=184]"^a tempo" [^DFc]4 [EGB]2 [B,EG]2) | %44
 (3(E2!>(! F2 G2 F4!>)! | [EG]8) | (c2 e2 (3(^d2 B2 d2) |!>(! [EGc]4!>)! [^DGB]2 [B,DG]2) | %48
 (3(E2!<(! F2 G2 [F^A]4- | [FA]2 [B,FB]2 [FB^d]2!<)! [Bdf]2 |!p! [eg]8- | %51
 [eg]4!<(! (3b2 ^d'2 b2)!<)! |!p! ([eg]8- | [eg]2!>(! [egc']2 [cf^a]2 [Aeg]2)!>)! |!p! [=df]8- | %55
!<(! ([df]4 (3a2 c'2 a2)!<)! |!mf! ([df]8- |!>(! [df]2 [dfb]2 [Beg]2 [Gdf]2)!>)! | %58
!mp! !tenuto![Ace]2 .[EAc].[EAc] .[EAc]2 !tenuto![Ace]2 | %59
 !tenuto![Acf]2 .[Acf].[Bcg] .[Acf].[Bcg] !tenuto![Acf]2 | %60
 !tenuto![Ace]2!<(! .[GAc].[GAc] .[FAc]2 .[EFA]2!<)! | !>![DFAc]8 | %62
!pp! !tenuto![D=GB]2 .[B,DG].[B,DG] .[B,DG]2 .[DGB]2 | %63
 !tenuto![=C=FA]2 .[CFA].[DFB] .[CFA].[DFB] .[EF=c]2 | %64
 !tenuto![D=GB]2 .[B,DG].[B,DG] .[B,DG]2 .[DGB]2 |!<(! !>![E^GB]4 !>!E4!<)! | %66
!mf! !tenuto![Ace]2 .[Ac].[Ac] .[Ac]2 !tenuto![Ace]2 | %67
 !tenuto![Acf]2 .[Acf].[Bcg] .[Adf].[Adg] !tenuto![Acf]2 | %68
"_cresc." !tenuto![Ace]2 .[GAc].[GAc] .[FAc]2 !tenuto![EFA]2 | [^DFAc]8- | %70
"^"!f! [DFAc]2 [B,FA][B,FA] [B,^DF]2 [EFA]2 |"_cresc." [^DAc]2 [B,FA][B,FA] [B,DF]2 [EFA]2 | %72
 [^DAc]2 [CFA]4 [FAc]2 |!f! !>![G^d]^D x2 x4 | x8 ||[K:Ab]!pp! (e'2 c'2 e'2 g'2 | e'4) (c'2 e'2 | %77
 (3c'2 b2 c'2 a2 c'2 | b4)!<(! (B2 c2)!<)! |"^cédez"!>(! (d4 c2 f2)!>)! |!>(! (B4 A2 f2)!>)! | %81
!>(! (G4 F2 f2!>)! |[Q:1/4=184]"^a Tempo" E8-) |!pp! E2 (C2 E2 G2 | E4 C2 E2 | (3C2 B,2 C2 A,2 C2 | %86
[K:bass]"_rit." B,4 A,2 B,2) || %87
[K:A][K:treble][Q:1/4=184]"^a tempo"!ppp! !tenuto![EGB]2 .[EG].[EG] .[EG]2 .[EGB]2 | %88
 !tenuto![EGc]2 .[EGc].[EG^d] .[EGc].[EGd] .[EGc]2 | !tenuto![EGB]2 .[EG].[EG] .[EG]2 .[EGB]2 | %90
 !tenuto![=D=F_A_B]8 |!ppp! !tenuto![=eg=b]2 .[eg].[eg] .[eg]2 .[egb]2 | %92
 !tenuto![egc']2 .[egc'].[eg^d'] .[egc'].[egd'] .[egc']2 | %93
 !tenuto![egb]2 .[eg].[eg] .[eg]2 .[egb]2 | %94
 ([=f_b]=d[I:staff +1][D=F]_B)[I:staff -1] ([fb]d[I:staff +1][DF]B) | %95
[I:staff -1] ([=f_b]d[I:staff +1][D=F]_B)[I:staff -1] ([fb]d[I:staff +1][DF]B) | %96
[I:staff -1] ([=f_b]!<(!d[I:staff +1][D=F]_B[I:staff -1] [^f=b]^d[I:staff +1][^D^F]=B!<)! | %97
!>(![I:staff -1] [gc']^e[I:staff +1][^EG]c[I:staff -1] [fb]!>)!^d[I:staff +1][^DF])B | %98
!pp![I:staff -1] ([=f_b]=d[I:staff +1][=D=F]!<(!_B)[I:staff -1] ([^f=b]^d[I:staff +1][^D^F]=B)!<)! | %99
[I:staff -1] ([gc']^e!>(![I:staff +1][^EG]c)[I:staff -1] ([fb]^d[I:staff +1][^DF]B)!>)! | %100
!<(![I:staff -1] ([=f_b]=d[I:staff +1][=D=F]_B)[I:staff -1] ([^f=b]^d!<)![I:staff +1][^D^F]=B) | %101
[I:staff -1] ([gc']^e[I:staff +1][^EG]c)[I:staff -1] ([gc']e[I:staff +1][EG]c) | %102
[I:staff -1] ([gc']^e[I:staff +1][^EG]c)[I:staff -1] ([gc']e[I:staff +1][EG]c) | %103
!>(![I:staff -1] ([ac']^e!>)![I:staff +1][^EA]c)"_molto"[I:staff -1] ([ac']e[I:staff +1][EA]c) | %104
"_dim."[I:staff -1] ([ac']^e[I:staff +1][^EA]c)[I:staff -1] ([ac']e[I:staff +1][EA]c) || %105
!p![Q:1/4=184]"^I tempo"[I:staff -1] (c'afc) (c'afc) | (c'afc) (c'afc) | (c'afc) (c'afd) | %108
 (c'bfc) (c'b^ec) | z FGA B4- | BABc !tenuto!d4- | dcde!f! [df]4- | ([df]4 F4-) | %113
 F2 .c2 !tenuto!B4- | B2 .A.G .F2 .E.D |!<(! C2 DE F2 A2!<)! |!>(! !>![FG]8-!>)! | %117
 [FG]4 ([FA]2 !wedge![eg]2) | !tenuto![FG]2 z2!<(! ([DF]2 !wedge![ce]2)!<)! | %119
 !tenuto![CE]2 z2!<(! ([B,^D]2 !wedge![Ac]2)!<)! |!f! [G,C]8- | %121
 [G,C]4"^dim." ([=G,B,]2 !wedge![=GB]2) | [^G,C]8- | [G,C]4!p! ([=G,B,]2 !wedge![=GB]2) | %124
[K:bass]!p! (3!tenuto![F,A,]2 !tenuto!F,2 !tenuto!F,2 !tenuto!F,2 !tenuto![F,A,]2 | %125
 (3!tenuto![F,B,]2 !tenuto![F,B,]2 !tenuto![F,B,]2 (3!tenuto![F,B,]2 !tenuto![F,C]2 !tenuto![F,B,]2 | %126
 (3!tenuto![F,A,]2 !tenuto!F,2 !tenuto!F,2 !tenuto!F,2 !tenuto![F,A,]2 | [F,G,]8[K:treble] | %128
!p! (3!tenuto![DFA]2 !tenuto![DF]2 !tenuto![DF]2 !tenuto![DF]2 !tenuto![DFA]2 | %129
 (3!tenuto![DFB]2 !tenuto![DFB]2 !tenuto![DFB]2 (3!tenuto![DFB]2 !tenuto![EFc]2 !tenuto![DFB]2 | %130
 (3!tenuto![DFA]2 !tenuto![DF]2 !tenuto![DF]2 !tenuto![DF]2 !tenuto![DFA]2 | [B,DFG]8 | x4 FGBd | %133
!mf! (fdB[I:staff +1]F- (G[I:staff -1]B)de) | (f"_dim."dB[I:staff +1]E- (G[I:staff -1]B)de) | %135
!p! (fdB[I:staff +1]F- (G[I:staff -1]B)de) |!p! (fdB[I:staff +1]E- (G[I:staff -1]B)de) | %137
!pp! .f2 .c'2 !tenuto!^b4 | (c'2 e'2 (3^d'2 =b2 a2) | .f2 .c'2 !tenuto!^b4 | %140
 (c'2 e'2 (3^d'2 b2 a2) |"_rit."!<(! (c2 e2!<)!!>(! (3^d2 B2 A2)!>)! | %142
!pp![Q:1/4=184]"^I tempo" c8 | c[I:staff +1]^dfa c'[I:staff -1]^d'f'a' |!pp! [b'c'']8 | %145
 x4!8va(! ^e'g'b'c'' |!ppp! ([c''f'']f'[c''f'']f' [f'c'']c'[f'c'']c' | %147
 [f'^d'']^d'[f'd'']d' [f'b']b[f'b']b)!8va)! | ([c'f']f[c'f']f [fc']c[fc']c | %149
 [f^d']^d[fd']d [fb]B[fb]B | [cf]F[cf]F [Fc]C[Fc]C | [^DF^d]8) | x8 |!ppp! [fc'f'] z z2 z4 | %154
 [Fcf] z z2 z4 | [ff'] z z2 z4 |] %156
V:2
 .F,,.C,.A,.C, .G,,.C,.B,.C, | .A,,.F,.C.F, .B,,.F,.D.F, |"_simili" .F,,.C,.A,.C, .G,,.C,.B,.C, | %3
 .A,,.F,.C.F, .B,,.F,.D.F, | .F,,.C,.A,.C, .A,,.F,.C.F, | .C,.G,.E.G, .B,,.G,.C.G, | %6
 .A,,.F,.C.F, .G,,.C,.B,.C, | .F,,.C,.B,.C, .G,,.E,.D.E, | .A,,.E,.A,.C .D,.A,.D.F | %9
 .A,.D.F.A z .D.C.B, | .A,.C.A,.F, .G,.B,.E.F, | .E,.B,.E.B, .B,,.G,.D.E, | %12
 .A,,.E,.A,.E, .D,.A,.D.C, | .^B,,.G,.^D.G, .B,,.G,.D.G, | .^B,,.G,.^D.G, .C,.A,.E.A, | %15
 .^B,,.G,.^D.G, .=B,,.E,.[G,=D].E, | .A,,.E,.C.E, .F,,.B,,.B,.B,, | %17
 .C,,.G,,.^E,.G,, .C,,.G,,.E,.G,, | .C,,.G,,.^E,.G,, .B,,.F,.A,.C | .=E,.B,.D.B, .E,.B,.E,.B,, | %20
 .E,,.B,,.E,.G, .B,,.F,.A,.C | .E,.B,.D.B, .E,.B,.E,.B,, | .E,,.B,,.E,.G, .B,,.E,.D.E, | %23
 .A,,.E,.A,.C .D,.A,.D.A, | .F,.A,.C.A, .B,,.F,.B,.F, | .E,,.B,,.E,.=G, .E,,.A,,.G,.A,, | %26
 .F,,.C,.A,.F, .E,,.A,,.F,.A,, | .D,,.A,,.D,.F, .A,,.D,.F,.A, | .D,.A,.D.F .C,.F,.A,.D | %29
 .B,,.F,.B,.D .B,,.^E,.G,.D | .B,,.F,.B,.D .B,,.F,.G,.F, | .A,,.F,.A,.F, .F,,.C,.A,.C, | %32
 .^B,,.F,.^B,.F, .C,.F,.E.F, | .^D,.F,.^B,.F, .E,.F,.C.F, | .^D,.F,.^B,.F, .G,,.D,.B,.D, | %35
 .G,,.=D,.=B,.D, (E,,!mf!D, E,G, |!>(![I:staff -1] CG,!>)![I:staff +1] D,E,,)!p! (C,,G,, ^E,B,) | %37
[I:staff -1] (CB,[I:staff +1] ^E,G,,)[I:staff -1] (cB[I:staff +1] ^EG,) | %38
 z (F,CA)[K:treble] z (A,[DF]=c) | z (^CFe) z (B,F^d) | z (F,CA) z (A,[=DF]=c) | %41
 z (^CFe) z (B,F^d) |[K:bass] z (C,F,E) z (B,,F,^D) | z (A,,F,C) z (G,,E,G,,) | %44
 z (F,,C,F,,) z (B,,,B,,B,,,) | (E,,B,,!<(!E,G, B,E[I:staff -1]GB)!<)! | %46
[I:staff +1] z (^^F,CE) z (G,B,^D) | z (C,G,C) z (G,,^D,G,) | z (F,,C,F,,) z (E,,C,E,,) | %49
 (^D,,B,,^D,F, B,^DFB) |[K:treble] z (CEG)!<(! z (B,EG) | z (^A,E!<)!G) z (G,EB) | %52
 z (CEG)!<(! z (B,EG)!<)! | z (^A,EG) z (F,CF) | z (B,DF) z (A,DF) | z (G,DF)!<(! z (F,DA)!<)! | %56
 z (B,DF) z (A,DF) | z (G,DF)[K:bass] z (E,B,E,) | A,,E,A,C CA,E,A,, | F,,C,F,C CF,C,F,, | %60
 A,,E,A,C CA,E,A,, | D,,!mf!A,,D,F, F,D,A,,D,, | =G,,D,=G,D, G,,D,G,D, | D,,A,,=F,A,, =F,,=C,A,C, | %64
 =G,,D,=G,D, =F,,D,G,D, | E,,B,,E,G, E,G,B,E | A,CEC G,CEC | F,CFC D,A,FA, | A,,E,CE, F,,C,A,C, | %69
 B,,,F,,B,,F,, F,,B,,F,B,, | B,,F,B,F, F,,C,F,C, | B,,F,B,F, F,,C,F,C, | B,,F,B,F, F,,C,F,C, | %73
 x2!<(! [G,,,^D,,]G,, (G,,^D,[I:staff -1] ^DG,) | %74
[I:staff +1] (G,^D[I:staff -1] ^d!<)!!>(!G)[I:staff +1][K:treble] (G^d!>)![I:staff -1] ^d'g) || %75
[K:Ab][I:staff +1][K:treble] (Acec) (A=BeB) | (Acec) (GAcG) | (FAcA) (EGAG) | (DFAF) (EFAF) | %79
 ((FABA) (EGAG) | (DFGF) (C)EFE) | (B,DED) (A,CDC) | %82
 (G,B,DB,)[K:bass] F,[I:staff -1][B,D][I:staff +1]E,[I:staff -1][B,D] | %83
[I:staff +1] (A,,E,A,,E,) (G,,E,G,,E,) | (A,,E,A,,E,) (G,,E,G,,E,) | (F,,C,F,,C,) (E,,C,E,,C,) | %86
 A,,,A,,A,,,A,, A,,,A,,A,,,A,, ||[K:A] .G,,.E,.B,.E, .G,,.E,.B,.E, | .G,,.E,.^A,.E, .G,,.E,.A,.E, | %89
 .G,,.E,.B,.E, .G,,.E,.B,.E, | ._A,,.=F,!<(!._B,.F, ._A,[I:staff -1].=F.B.F!<)! | %91
[I:staff +1][K:treble] .G,.E.=B.E .G,.E.B.E | .G,.E.^A.E .G,.E.A.E | .G,.E.B.E .G,.E.B.E | _A,8- | %95
"_" A,8- |"_" A,8 | =B,8 | _A,8 | =B,8 | _A,8 | =B,8- | B,8 | x8 | x8 || .F2 .c2 !tenuto!B4- | %106
 B2 .A.G F2 .E.D | C2 .D.E .F2 .A2 | [CG]8 |[K:bass] A,,F,CF, G,,C,B,C, | G,,C,A,C, B,,E,DE, | %111
 A,,E,A,C D,A,DF | A,DFA z DCB, | A,B,A,F, G,B,EF, | E,B,EB, B,,G,DE, | A,,E,A,E, D,A,DC, | %116
 ^B,,G,^DG, B,,G,DG, | ^B,,G,^DG, C,A,EA, | ^B,,G,^DG, =B,,E,[G,D]E, | A,,E,A,E, F,,B,,A,B,, | %120
 C,,G,,^E,!>(!G,, C,,G,,E,G,, | C,,G,,!>)!^E,G,, C,,G,,=E,G,, | C,,G,,^E,G,, C,,G,,E,G,, | %123
 C,,G,,^E,G,, C,,G,,=E,G,, | D,,A,,D,A,, D,,A,,D,A,, | D,,^G,,D,G,, D,,G,,D,G,, | %126
 D,,A,,D,A,, D,,A,,D,A,, | (D,,B,,D,F, G,B,[I:staff -1]DF) |[I:staff +1] (D,,B,,D,F, A,F,D,A,,) | %129
 (D,,B,,D,F, A,F,D,A,,) | (D,,B,,D,F, A,F,D,A,,) | E,,B,,!<(!E,F, G,F,G,B, | DB,DE!<)! x4 | %133
[K:treble] x4 [FG]4 | x4 [EG]4 | x4 [FG]4 | x4 [EG]4 | z (F,[CF]A) z (A,[DF]=c) | %138
 z (^CFe) z (B,F^d) | z (F,[CF]A) z (A,[=DF]=c) | z (^CFe) z (B,F^d) | %141
[K:bass] z (^C,F,E) z (B,,F,^D) | A,,^D,F,A, C[I:staff -1]^DFA |[I:staff +1][K:treble] x8 | %144
[K:bass] G,,^E,G,B, C z z2 |[K:treble] ^egbc' x4 |[K:bass] ([F,,,C,,F,,]4 [C,,F,,C,]4 | %147
 [B,,,F,,B,,]8) | ([F,,,C,,F,,]4 [C,,F,,C,]4 | [B,,,F,,B,,]8) | [F,,,C,,F,,]4 [C,,F,,C,]4 | %151
 B,,,F,,B,,^D,F,[K:treble]B,^DF | B[I:staff -1]^dfb!8va(!^d'f'b'^d'' | %153
[I:staff +1][K:bass] [F,,C,F,] z z2 z4!8va)! | [F,,C,A,] z z2 z4 | [F,,,F,,] z z2 z4 |] %156
V:3
 x8 | x8 | x8 | x8 | x8 | x8 | x4 (F2 ^E2 | C2) z2 (A2 G2 | E2) z2 d4- | d2 z2 x4 | x8 | x8 | x8 | %13
 x8 | x8 | x8 | x8 | x8 | x8 | x8 | x8 | x8 | x8 | [=GB]4 [FA]4 | [EF]4 x4 | D4 (D2 B,2) | %26
 (3(C2 D2 B,2 (3C2 D2 E2) | (3(F2 ^G2 E2 (3F2 G2 A2) | x8 | d4 B4- | B2 x2 x4 | x8 | x8 | F8- | %34
 F8 | x8 | x8 | x8 | x4 [fa]4 | x2 [fa]2 (3x2 f2 x2 | x4 [fa]4 | x2 [fa]2 (3x2 f2 x2 | %42
 x2 [FA]2 (3x2 [FA]2 x2 | x8 | [A,C]4 [A,E]2 ^D2 | C2 B,2 x4 | [^^F^A]4 [GB]4 | x8 | %48
 [^A,C]4 ^D2 C2- | C2 x2 x4 | ^d2 c2 d2 c2 | ^d2 c2 [eg]4 | ^d2 c2 d2 c2 | ^d2 x2 x2 x2 | %54
 !tenuto!c2 !tenuto!B2 !tenuto!c2 !tenuto!B2 | c2 B2 [df]4 | %56
 !tenuto!c2 !tenuto!B2 !tenuto!c2 !tenuto!B2 | c2 x2 x4 | x8 | x8 | x8 | x8 | x8 | x8 | x8 | x8 | %66
 x8 | x8 | x8 | x8 | x8 | x8 | x8 | x8 | x8 ||[K:Ab] c'4 =b4 | c'4 a4- | a4 g4 | f4 x4 | x8 | x8 | %81
 x8 | x8 | x4 =B,4 | C4 _B,4 | A,4 G,4 |[K:bass] [=D,F,]4- [D,F,]4 ||[K:A][K:treble] x8 | x8 | x8 | %90
 x8 | x8 | x8 | x8 | x8 | x8 | x8 | x8 | x8 | x8 | x8 | x8 | x8 | x8 | x8 || x8 | x8 | x8 | x8 | %109
 x4 (F2 ^E2 | C2) z2 (A2 G2 | E2) x2 x4 | x8 | x8 | x8 | x8 | x8 | x8 | x8 | x8 | x8 | x8 | x8 | %123
 x8 |[K:bass] x8 | x8 | x8 | x6[K:treble] x2 | x8 | x8 | x8 | x8 | x8 | x8 | x8 | x8 | x8 | %137
 x4 [fa]4 | x2 [fa]2 (3x2 f2 x2 | x4 [fa]4 | x2 [fa]2 (3x2 f2 x2 | x2 [FA]2 (3x2 F2 x2 | x8 | x8 | %144
 x4 ^EGBc | x4!8va(! x4 | x8 | x8!8va)! | x8 | x8 | x8 | x8 | x8 | x8 | x8 | x8 |] %156
V:4
 x8 | x8 | x8 | x8 | x8 | x8 | x8 | x8 | x8 | x8 | x8 | x8 | x8 | x8 | x8 | x8 | x8 | x8 | x8 | %19
 x8 | x8 | x8 | x8 | x8 | x8 | x8 | x8 | x8 | x8 | x8 | x8 | x8 | x8 | x8 | x8 | x8 | x8 | x8 | %38
 x4[K:treble] x4 | x8 | x8 | x8 |[K:bass] x8 | x8 | x8 | x8 | x8 | x8 | x8 | x8 |[K:treble] x8 | %51
 x8 | x8 | x8 | x8 | x8 | x8 | x4[K:bass] x4 | x8 | x8 | x8 | x8 | x8 | x8 | x8 | x8 | x8 | x8 | %68
 x8 | x8 | x8 | x8 | x8 | x8 | x4[K:treble] x4 ||[K:Ab][K:treble] x8 | x8 | x8 | x8 | F4 E4 | %80
 D4 C4 | (B,4 A,4 | G,4[K:bass] F,2 E,2) | x8 | x8 | x8 | x8 ||[K:A] x8 | x8 | x8 | x8 | %91
[K:treble] x8 | x8 | x8 | x8 | x8 | x8 | x8 | x8 | x8 | x8 | x8 | x8 | x8 | x8 || =E8 | ^D4 =D4 | %107
 F,4 A,2 B,2 | x8 |[K:bass] x8 | x8 | x8 | x8 | x8 | x8 | x8 | x8 | x8 | x8 | x8 | x8 | x8 | x8 | %123
 x8 | x8 | x8 | x8 | x8 | x8 | x8 | x8 | x8 | D2 x2 x4 |[K:treble] x8 | x8 | x8 | x8 | x8 | x8 | %139
 x8 | x8 |[K:bass] x8 | x8 |[K:treble] x8 |[K:bass] x8 |[K:treble] x8 |[K:bass] x8 | x8 | x8 | x8 | %150
 x8 | x5[K:treble] x3 | x4!8va(! x4 |[K:bass] x8!8va)! | x8 | x8 |] %156

